X: 30681
T: Orange And Blue, The
R: strathspey
M: 4/4
K: Dmajor
|:ag|f<d d2 A<d d2|f>ga>f d2 f>a|b<eed e<f e2|c>de>c A2 a>g|
f<d d2 A<d d2|f>da>f d2 (3fga|b>ga>f g>ee>d|e2 (3ABc d2:|
|:a>g|f<a a2 f<a a2|f>da>f d2 e>f|g<b b2 g<b b2|g>eb>g e2 a>g|
f<a a2 f<a a2|f<da>f d2 (3fga|b>ga>f g>ee>d|ec (3ABc d2:|

